lib/svgs/travel.svg

<?xml version="1.0" encoding="UTF-8"?>
<svg width="16px" height="16px" viewBox="0 0 16 16" version="1.1" xmlns="http://www.w3.org/2000/svg" xmlns:xlink="http://www.w3.org/1999/xlink">
    <!-- Generator: sketchtool 51.3 (57544) - http://www.bohemiancoding.com/sketch -->
    <title>audit/travel</title>
    <desc>Created with sketchtool.</desc>
    <defs></defs>
    <g id="Icons" stroke="none" stroke-width="1" fill="none" fill-rule="evenodd">
        <g id="Web" transform="translate(-387.000000, -892.000000)" fill="#000000">
            <g id="audit/travel" transform="translate(387.000000, 892.000000)">
                <path d="M15.8931,12.3752 L11.3761,5.8772 C11.2641,5.7152 11.0801,5.6192 10.8841,5.6192 C10.6871,5.6192 10.5031,5.7152 10.3911,5.8772 L10.0411,6.3802 L7.6501,2.9392 C7.4251,2.6162 6.8891,2.6162 6.6651,2.9392 L0.1071,12.3752 C-0.0199,12.5582 -0.0349,12.7982 0.0681,12.9962 C0.1721,13.1932 0.3771,13.3172 0.6001,13.3172 L15.4001,13.3172 C15.6231,13.3172 15.8281,13.1932 15.9321,12.9962 C16.0351,12.7982 16.0201,12.5582 15.8931,12.3752 L15.8931,12.3752 L15.8931,12.3752 L15.8931,12.3752 M6.8731,4.7422 L8.0851,9.1952 L6.0531,12.1182 L1.7481,12.1182 L6.8731,4.7422 L6.8731,4.7422 L6.8731,4.7422 L6.8731,4.7422 M8.9791,7.9092 L8.5521,6.3392 L9.3111,7.4312 L8.9791,7.9092 L8.9791,7.9092 L8.9791,7.9092 L8.9791,7.9092 M10.6131,7.6602 L11.8261,12.1182 L7.5151,12.1182 L10.6131,7.6602 L10.6131,7.6602 L10.6131,7.6602 L10.6131,7.6602 M13.0701,12.1182 L12.3091,9.3212 L14.2521,12.1182 L13.7151,12.1182 L13.0701,12.1182 L13.0701,12.1182 L13.0701,12.1182 L13.0701,12.1182" id="Shape"></path>
            </g>
        </g>
    </g>
</svg>

<svg xmlns="http://www.w3.org/2000/svg" viewBox="0 0 16 16">
    <path d="M15.893 12.375l-4.517-6.498a.598.598 0 0 0-.985 0l-.35.503-2.39-3.44c-.226-.324-.762-.324-.986 0L.107 12.374a.603.603 0 0 0-.039.621.602.602 0 0 0 .532.321h14.8a.602.602 0 0 0 .532-.32.603.603 0 0 0-.039-.622m-9.02-7.633l1.212 4.453-2.032 2.923H1.748l5.125-7.376M8.98 7.91l-.427-1.57.76 1.092-.333.478m1.634-.249l1.213 4.458h-4.31l3.097-4.458m2.457 4.458l-.76-2.797 1.942 2.797H13.07"/>
</svg>
